svg/blobs-icons/no-decorations/chart-board.svg

<svg xmlns="http://www.w3.org/2000/svg" xmlns:xlink="http://www.w3.org/1999/xlink" preserveAspectRatio="xMidYMid" width="216" height="201" viewBox="0 0 216 201"><defs><style>.cls-3{fill:#142a3b}.cls-6{fill:#ededed}.cls-7{fill:#060606;opacity:.35}.cls-10{fill:#fbb713}.cls-11{fill:#ff3a2f}.cls-12{fill:#0cb04a}.cls-13{fill:#2476ff}</style></defs><g id="group-19svg"><path d="M140.314 180.957s-69.669.0-69.669.0.0-4.744.0-4.744 69.669.0 69.669.0.0 4.744.0 4.744z" id="path-1" class="cls-3" fill-rule="evenodd"/><path d="M114.138 200.613s-16.945.0-16.945.0.0-200.622.0-200.622 16.945.0 16.945.0.0 200.622.0 200.622z" id="path-2" class="cls-3" fill-rule="evenodd"/><path d="M195.555 145.035s-175.55.0-175.55.0.0-130.133.0-130.133 175.55.0 175.55.0.0 130.133.0 130.133z" id="path-3" class="cls-3" fill-rule="evenodd"/><path d="M182.48 133.521s-149.401.0-149.401.0.0-107.105.0-107.105 149.401.0 149.401.0.0 107.105.0 107.105z" id="path-4" class="cls-6" fill-rule="evenodd"/><path d="M182.48 40.123S33.079 32.286 33.079 32.286s0-5.87.0-5.87 149.401.0 149.401.0.0 13.707.0 13.707z" id="path-5" class="cls-7" fill-rule="evenodd"/><path d="M215.55 22.019s-215.54.0-215.54.0.0-11.184.0-11.184 215.54.0 215.54.0.0 11.184.0 11.184z" id="path-6" class="cls-3" fill-rule="evenodd"/><path d="M64.736 108.639C64.032 108.639 63.32 108.432 62.696 108.003 61.065 106.874 60.656 104.637 61.784 103.004L84.74 69.796s45.732 26.03 45.732 26.03 19.14-35.85 19.14-35.85C150.547 58.227 152.715 57.563 154.474 58.499 156.223 59.434 156.884 61.611 155.951 63.361l-22.617 42.361S86.907 79.296 86.907 79.296 67.696 107.09 67.696 107.09C66.997 108.099 65.876 108.639 64.736 108.639z" id="path-7" class="cls-3" fill-rule="evenodd"/><path d="M75.174 104.635C75.174 110.397 70.502 115.069 64.74 115.069 58.978 115.069 54.306 110.397 54.306 104.635S58.978 94.202 64.74 94.202C70.502 94.202 75.174 98.873 75.174 104.635z" id="path-8" class="cls-10" fill-rule="evenodd"/><path d="M97.008 71.158C97.008 78.27 91.242 84.036 84.129 84.036 77.018 84.036 71.251 78.27 71.251 71.158c0-7.113 5.767-12.878 12.878-12.878 7.113.0 12.879 5.765 12.879 12.878z" id="path-9" class="cls-11" fill-rule="evenodd"/><path d="M143.897 100.774c0 6.624-5.37 11.995-11.995 11.995C125.278 112.769 119.908 107.398 119.908 100.774c0-6.625 5.37-11.994 11.994-11.994 6.625.0 11.995 5.369 11.995 11.994z" id="path-10" class="cls-12" fill-rule="evenodd"/><path d="M161.254 58.619C161.254 63.297 157.46 67.091 152.782 67.091 148.102 67.091 144.308 63.297 144.308 58.619 144.308 53.94 148.102 50.147 152.782 50.147 157.46 50.147 161.254 53.94 161.254 58.619z" id="path-11" class="cls-13" fill-rule="evenodd"/><path d="M158.816 200.567S182.825 200.613 182.825 200.613s-64.906-64.904-64.906-64.904-11.982 11.981-11.982 11.981 52.879 52.877 52.879 52.877z" id="path-12" class="cls-3" fill-rule="evenodd"/><path d="M56.744 200.567S32.735 200.613 32.735 200.613s64.906-64.904 64.906-64.904 11.982 11.981 11.982 11.981-52.879 52.877-52.879 52.877z" id="path-13" class="cls-3" fill-rule="evenodd"/><path d="M142.004 159.793s-14.759-14.758-14.759-14.758-38.93.0-38.93.0S80.935 152.414 80.935 152.414 114.138 155.874 114.138 155.874 114.138 155.892 114.138 155.892 142.004 159.793 142.004 159.793z" id="path-14" class="cls-7" fill-rule="evenodd"/></g></svg>

<svg xmlns="http://www.w3.org/2000/svg" xmlns:xlink="http://www.w3.org/1999/xlink" preserveAspectRatio="xMidYMid" width="216" height="201" viewBox="0 0 216 201">
  <defs>
    <style>

      .cls-3 {
        fill: #142a3b;
      }

      .cls-6 {
        fill: #ededed;
      }

      .cls-7 {
        fill: #060606;
        opacity: 0.35;
      }

      .cls-10 {
        fill: #fbb713;
      }

      .cls-11 {
        fill: #ff3a2f;
      }

      .cls-12 {
        fill: #0cb04a;
      }

      .cls-13 {
        fill: #2476ff;
      }
    </style>
  </defs>
  <g id="group-19svg">
    <path d="M140.314,180.957 C140.314,180.957 70.645,180.957 70.645,180.957 C70.645,180.957 70.645,176.213 70.645,176.213 C70.645,176.213 140.314,176.213 140.314,176.213 C140.314,176.213 140.314,180.957 140.314,180.957 Z" id="path-1" class="cls-3" fill-rule="evenodd"/>
    <path d="M114.138,200.613 C114.138,200.613 97.193,200.613 97.193,200.613 C97.193,200.613 97.193,-0.009 97.193,-0.009 C97.193,-0.009 114.138,-0.009 114.138,-0.009 C114.138,-0.009 114.138,200.613 114.138,200.613 Z" id="path-2" class="cls-3" fill-rule="evenodd"/>
    <path d="M195.555,145.035 C195.555,145.035 20.005,145.035 20.005,145.035 C20.005,145.035 20.005,14.902 20.005,14.902 C20.005,14.902 195.555,14.902 195.555,14.902 C195.555,14.902 195.555,145.035 195.555,145.035 Z" id="path-3" class="cls-3" fill-rule="evenodd"/>
    <path d="M182.480,133.521 C182.480,133.521 33.079,133.521 33.079,133.521 C33.079,133.521 33.079,26.416 33.079,26.416 C33.079,26.416 182.480,26.416 182.480,26.416 C182.480,26.416 182.480,133.521 182.480,133.521 Z" id="path-4" class="cls-6" fill-rule="evenodd"/>
    <path d="M182.480,40.123 C182.480,40.123 33.079,32.286 33.079,32.286 C33.079,32.286 33.079,26.416 33.079,26.416 C33.079,26.416 182.480,26.416 182.480,26.416 C182.480,26.416 182.480,40.123 182.480,40.123 Z" id="path-5" class="cls-7" fill-rule="evenodd"/>
    <path d="M215.550,22.019 C215.550,22.019 0.010,22.019 0.010,22.019 C0.010,22.019 0.010,10.835 0.010,10.835 C0.010,10.835 215.550,10.835 215.550,10.835 C215.550,10.835 215.550,22.019 215.550,22.019 Z" id="path-6" class="cls-3" fill-rule="evenodd"/>
    <path d="M64.736,108.639 C64.032,108.639 63.320,108.432 62.696,108.003 C61.065,106.874 60.656,104.637 61.784,103.004 C61.784,103.004 84.740,69.796 84.740,69.796 C84.740,69.796 130.472,95.826 130.472,95.826 C130.472,95.826 149.612,59.976 149.612,59.976 C150.547,58.227 152.715,57.563 154.474,58.499 C156.223,59.434 156.884,61.611 155.951,63.361 C155.951,63.361 133.334,105.722 133.334,105.722 C133.334,105.722 86.907,79.296 86.907,79.296 C86.907,79.296 67.696,107.090 67.696,107.090 C66.997,108.099 65.876,108.639 64.736,108.639 Z" id="path-7" class="cls-3" fill-rule="evenodd"/>
    <path d="M75.174,104.635 C75.174,110.397 70.502,115.069 64.740,115.069 C58.978,115.069 54.306,110.397 54.306,104.635 C54.306,98.873 58.978,94.202 64.740,94.202 C70.502,94.202 75.174,98.873 75.174,104.635 Z" id="path-8" class="cls-10" fill-rule="evenodd"/>
    <path d="M97.008,71.158 C97.008,78.270 91.242,84.036 84.129,84.036 C77.018,84.036 71.251,78.270 71.251,71.158 C71.251,64.045 77.018,58.280 84.129,58.280 C91.242,58.280 97.008,64.045 97.008,71.158 Z" id="path-9" class="cls-11" fill-rule="evenodd"/>
    <path d="M143.897,100.774 C143.897,107.398 138.527,112.769 131.902,112.769 C125.278,112.769 119.908,107.398 119.908,100.774 C119.908,94.149 125.278,88.780 131.902,88.780 C138.527,88.780 143.897,94.149 143.897,100.774 Z" id="path-10" class="cls-12" fill-rule="evenodd"/>
    <path d="M161.254,58.619 C161.254,63.297 157.460,67.091 152.782,67.091 C148.102,67.091 144.308,63.297 144.308,58.619 C144.308,53.940 148.102,50.147 152.782,50.147 C157.460,50.147 161.254,53.940 161.254,58.619 Z" id="path-11" class="cls-13" fill-rule="evenodd"/>
    <path d="M158.816,200.567 C158.816,200.567 182.825,200.613 182.825,200.613 C182.825,200.613 117.919,135.709 117.919,135.709 C117.919,135.709 105.937,147.690 105.937,147.690 C105.937,147.690 158.816,200.567 158.816,200.567 Z" id="path-12" class="cls-3" fill-rule="evenodd"/>
    <path d="M56.744,200.567 C56.744,200.567 32.735,200.613 32.735,200.613 C32.735,200.613 97.641,135.709 97.641,135.709 C97.641,135.709 109.623,147.690 109.623,147.690 C109.623,147.690 56.744,200.567 56.744,200.567 Z" id="path-13" class="cls-3" fill-rule="evenodd"/>
    <path d="M142.004,159.793 C142.004,159.793 127.245,145.035 127.245,145.035 C127.245,145.035 88.315,145.035 88.315,145.035 C88.315,145.035 80.935,152.414 80.935,152.414 C80.935,152.414 114.138,155.874 114.138,155.874 C114.138,155.874 114.138,155.892 114.138,155.892 C114.138,155.892 142.004,159.793 142.004,159.793 Z" id="path-14" class="cls-7" fill-rule="evenodd"/>
  </g>
</svg>
